!!!COM: Schubert, Franz
!!!CNT: Deutscher
!!!TXO: Deutsch
!!!OTL: "Auf dem Flusse"
!!!OPR: Winterreise
!!!LYR: Mu2ller, Wilhelm
!!!OPS: Opus 89
!!!ONM: No. 7
!!!ODT: 1827/
!!NB: Vocal melody only encoded.
**kern	**silbe
*clefG2	*
*k[f#]	*
*e:	*
*M2/4	*
*MM[langsam]	*
=5	=5
{8e	{Der
16e	du
16f#	so
8.g	lu-
16a	-stig
=6	=6
8b	rausch-
8b	-test,
8r	.
8B	du
=7	=7
8.e	hel-
16f#	-ler,
8.g	wil-
16a	-der
=8	=8
4b}	Fluss,}
8r	.
{8b	{wie
=9	=9
8.a#	still
16a#	bist
8a#	du
8a#	ge-
=10	=10
8a#	-wor-
8f#	-den,
8r	.
8a#	giebst
=11	=11
bq	kei-
cc#q	|
16b	|
16a#	|
16b	-nen
16dd#	|
8a#	Schei-
8a#	-de-
=12	=12
4d#}	-gruss!}
4r	.
=13	=13
4r	.
8r	.
{8B	{Mit
=14	=14
8.e	har-
16f#	-ter,
8.g	star-
16a	-rer
=15	=15
16.b	Rin-
32cc	|
8b	-de
8r	.
8B	hast
=16	=16
8.e	du
16f#	duch
8.g	u2-
16a	-ber-
=17	=17
4b}	-deckt,}
8r	.
{8b	{liegst
=18	=18
8.a#	kalt
16a#	und
8.dd#	un-
16a#	-be-
=19	=19
8a#	-weg-
8a#	-lich
8r	.
8a#	im
=20	=20
bq	San-
cc#q	|
16b	|
16a#	|
16b	-de
16dd#	|
8a#	aus-
8a#	-ge-
=21	=21
4d#}	-streckt.}
4r	.
=22	=22
4r	.
8r	.
{8f#	{In
=23	=23
*k[f#c#g#d#]	*
8.g#	dei-
16g#	-ne
8.g#	De-
16e	-cke
=24	=24
8g#	grab'
8f#	ich
8r	.
8g#	mit
=25	=25
8.a	ei-
16a	-nem
16a	spi-
16g#	|
16a	-tzen
16b	|
=26	=26
(8f##	Stein
8g#)}	|}
8r	.
{8a	{den
=27	=27
8.b	Na-
16b	-men
8b	mei-
8cc#	-ner
=28	=28
8.ee	Lieb-
16ddn	|
8cc#	-sten
16r	.
16cc#	und
=29	=29
(8cc#	Stund'
16f#)	|
16f#	und
8.gn	Tag
32a	hin-
32g#	|
=30	=30
4f#}	-ein:}
8r	.
{8f#	{Den
=31	=31
8.g#	Tag
16g#	des
8.g#	er-
16e	-sten
=32	=32
8g#	Gru-
8f#	-sses,
8r	.
8g#	den
=33	=33
8.a	Tag,
16a	an
16a	dem
16g#	|
16a	ich
16b	|
=34	=34
(8f##	ging;
8g#)}	|}
8r	.
{8a	{um
=35	=35
8.b	Nam'
16b	und
8b	Zah-
8cc#	-len
=36	=36
8.ee	win-
16ddn	|
8cc#	-det
8ee	sich
=37	=37
16f#	ein
16g#	|
16a	zer-
16b	|
8.cc#	-broch'-
16e	-ner
=38	=38
4b}	Ring.}
4r	.
=41	=41
*[f#cngndn]	*
4r	.
8.r	.
{16b	{Mein
=42	=42
4b	Herz,
4r	.
=43	=43
8.r	.
16b	in
8.b	die-
16ee	-sem
=44	=44
8ee	Ba-
8dd#	-che
4r	.
=45	=45
4r	.
8r	.
8dd#	er-
=46	=46
16dd#	-kennst
16ff#	|
16ff#	du
16ee#	|
8dd#	nun
8cc##	dein
=47	=47
4dd#}	Bild?}
8.r	.
{16dd#	{Ob's
=48	=48
8.b	un-
16cc#	-ter
8.dd#	sei-
16ee	-ner
=49	=49
8a#	Rin-
8dd#	-de
8r	.
8dd#	wohl
=50	=50
8.b	auch
16cc	so
8.dd#	rei-
16ee	-ssend
=51	=51
8a#	schwillt,
8dd#}	|}
4r	.
=52	=52
4r	.
{8.dd#	{ob's
16dd#	wohl
=53	=53
16ee	auch
16ggn	|
16ggn	so
16ff#	|
8ee	rei-
8dd#	-ssend
=54	=54
4ee}	schwillt?}
8.r	.
{16b	{Mein
=55	=55
4b	Herz,
4r	.
=56	=56
8.r	.
16ddn	in
8.ddn	die-
16ee	-sem
=57	=57
8ee	Ba-
8dd	-che
4r	.
=58	=58
4r	.
8r	.
8cc#	er-
=59	=59
16dd	-kennst
16cc#	|
16dd	du
16ff#	|
8cc#	nun
8cc#	dein
=60	=60
4cc#}	Bild?}
4r	.
=61	=61
4r	.
8r	.
{8b	{Ob's
=62	=62
8.b	un-
16b	-ter
8.b	sei-
16ee	-ner
=63	=63
(eq	Rin-
8dd#)	|
8dd#	-de
8.r	.
16ddn	wohl
=64	=64
8.dd	auch
16dd	so
8.dd	rei-
16gg	-ssend
=65	=65
8gg	schwillt,
8ff#}	|}
4r	.
=66	=66
4r	.
{8.dd#	{ob's
16dd#	wohl
=67	=67
16ee	auch
16gg	|
16gg	so
16ff#	|
8ee	rei-
8dd#	-ssend
=68	=68
4ff#}	schwillt,}
{8.dd#	{ob's
16dd#	wohl
=69	=69
16ee	auch
16gg	|
16ff#	so
16aa	|
8ee	rei-
8dd#	-ssend
=70	=70
4ee}	schwillt?}
4r	.
*-	*-
